www/assets/icons/e_mobiledata.svg

<svg xmlns="http://www.w3.org/2000/svg" width="24" height="24" viewBox="0 0 24 24" fill='currentColor'><path d="M16 9V7H8v10h8v-2h-6v-2h6v-2h-6V9z"/></svg>

<svg width="24" height="24" viewBox="0 0 24 24" xmlns="http://www.w3.org/2000/svg" fill='currentColor'><path d="M16 9V7H8V17H16V15H10V13H16V11H10V9H16Z"/></svg>
